;FLAVOR:Marlin
;TIME:6015
;Filament used: 7.16259m
;Layer height: 0.15
;MINX:46.979
;MINY:58.75
;MINZ:0.3
;MAXX:153.021
;MAXY:141.25
;MAXZ:19.95
;TARGET_MACHINE.NAME:Prusa i3
;Generated with Cura_SteamEngine 5.7.2
M140 S60
M105
M190 S60
M104 S200
M105
M109 S200
M82 ;absolute extrusion mode
G21 ;metric values
G90 ;absolute positioning
M82 ;set extruder to absolute mode
M107 ;start with the fan off
G28 X0 Y0 ;move X/Y to min endstops
G28 Z0 ;move Z to min endstops
G1 Z15.0 F9000 ;move the platform down 15mm
G92 E0 ;zero the extruded length
G1 F200 E3 ;extrude 3mm of feed stock
G92 E0 ;zero the extruded length again
G1 F9000
;Put printing message on LCD screen
M117 Printing...
G92 E0
G92 E0
G1 F1500 E-6.5
;LAYER_COUNT:132
;LAYER:0
M107
G0 F3600 X64.728 Y59.762 Z0.3
;TYPE:SKIRT
G1 F1500 E0
G1 F1800 X65.346 Y59.264 E0.0396
G1 X66.142 Y58.868 E0.08395
G1 X66.921 Y58.754 E0.12323
G1 X76.85 Y58.75 E0.61859
G1 X77.741 Y58.933 E0.66397
G1 X78.238 Y59.195 E0.692
G1 X78.895 Y58.868 E0.72861
G1 X79.674 Y58.754 E0.76789
G1 X89.603 Y58.75 E1.26325
G1 X90.493 Y58.932 E1.30857
G1 X91.248 Y59.33 E1.35115
G1 X91.468 Y59.499 E1.36499
G1 X91.966 Y60.117 E1.40459
G1 X92.362 Y60.913 E1.44895
G1 X92.476 Y61.692 E1.48822
G1 X92.481 Y72.15 E2.00998
G1 X135.05 Y72.15 E4.13375
G1 X135.94 Y72.332 E4.17907
G1 X136.695 Y72.73 E4.22165
G1 X136.915 Y72.899 E4.23549
G1 X137.413 Y73.517 E4.27509
G1 X137.809 Y74.313 E4.31945
G1 X137.923 Y75.092 E4.35873
G1 X137.927 Y86.915 E4.94858
G1 X150.144 Y86.915 E5.55809
G1 X151.034 Y87.097 E5.60341
G1 X151.789 Y87.495 E5.64599
G1 X152.009 Y87.664 E5.65983
G1 X152.507 Y88.282 E5.69942
G1 X152.903 Y89.078 E5.74378
G1 X153.017 Y89.857 E5.78306
G1 X153.021 Y98.136 E6.1961
G1 X152.839 Y99.026 E6.24142
G1 X152.441 Y99.781 E6.284
G1 X152.228 Y100.008 E6.29953
G1 X152.526 Y100.392 E6.32378
G1 X152.903 Y101.15 E6.36602
G1 X153.017 Y101.929 E6.4053
G1 X153.021 Y110.038 E6.80986
G1 X152.839 Y110.928 E6.85518
G1 X152.441 Y111.683 E6.89776
G1 X152.272 Y111.903 E6.9116
G1 X151.654 Y112.401 E6.95119
G1 X150.858 Y112.797 E6.99555
G1 X150.079 Y112.911 E7.03483
G1 X137.927 Y112.915 E7.64109
G1 X137.927 Y124.804 E8.23424
G1 X137.745 Y125.694 E8.27956
G1 X137.347 Y126.449 E8.32214
G1 X137.178 Y126.669 E8.33598
G1 X136.56 Y127.167 E8.37558
G1 X135.764 Y127.563 E8.41993
G1 X134.985 Y127.677 E8.45921
G1 X92.48 Y127.681 E10.57979
G1 X92.48 Y138.373 E11.11322
G1 X92.298 Y139.263 E11.15854
G1 X91.9 Y140.018 E11.20112
G1 X91.731 Y140.238 E11.21496
G1 X91.113 Y140.736 E11.25456
G1 X90.317 Y141.132 E11.29891
G1 X89.538 Y141.246 E11.33819
G1 X79.608 Y141.25 E11.8336
G1 X78.717 Y141.067 E11.87898
G1 X78.22 Y140.805 E11.90701
G1 X77.563 Y141.132 E11.94363
G1 X76.784 Y141.246 E11.9829
G1 X66.856 Y141.25 E12.47821
G1 X65.966 Y141.068 E12.52354
G1 X65.211 Y140.67 E12.56612
G1 X64.991 Y140.501 E12.57996
G1 X64.493 Y139.883 E12.61955
G1 X64.097 Y139.087 E12.66391
G1 X63.983 Y138.308 E12.70319
G1 X63.979 Y124.25 E13.40454
G1 X49.856 Y124.25 E14.10914
G1 X48.966 Y124.068 E14.15446
G1 X48.211 Y123.67 E14.19704
G1 X47.991 Y123.501 E14.21088
G1 X47.493 Y122.883 E14.25048
G1 X47.097 Y122.087 E14.29484
G1 X46.983 Y121.308 E14.33412
G1 X46.979 Y78.627 E16.46348
G1 X47.161 Y77.737 E16.5088
G1 X47.559 Y76.982 E16.55138
G1 X47.728 Y76.762 E16.56522
G1 X48.346 Y76.264 E16.60482
G1 X49.142 Y75.868 E16.64917
G1 X49.921 Y75.754 E16.68845
G1 X63.979 Y75.75 E17.38981
G1 X63.979 Y61.627 E18.09441
G1 X64.161 Y60.737 E18.13973
G1 X64.559 Y59.982 E18.18231
G1 X64.728 Y59.762 E18.19615
G0 F3600 X65.016 Y60.043
G1 F1800 X65.562 Y59.603 E18.23113
G1 X66.262 Y59.255 E18.27013
G1 X66.979 Y59.15 E18.30629
G1 X76.808 Y59.15 E18.79666
G1 X77.606 Y59.314 E18.8373
G1 X78.233 Y59.644 E18.87265
G1 X79.015 Y59.255 E18.91623
G1 X79.732 Y59.15 E18.95238
G1 X89.562 Y59.15 E19.4428
G1 X90.358 Y59.313 E19.48334
G1 X91.062 Y59.684 E19.52304
G1 X91.187 Y59.787 E19.53112
G1 X91.627 Y60.333 E19.5661
G1 X91.975 Y61.033 E19.6051
G1 X92.08 Y61.75 E19.64126
G1 X92.081 Y72.55 E20.18007
G1 X135.009 Y72.55 E22.32176
G1 X135.805 Y72.713 E22.36229
G1 X136.509 Y73.084 E22.402
G1 X136.634 Y73.187 E22.41008
G1 X137.074 Y73.733 E22.44506
G1 X137.422 Y74.433 E22.48406
G1 X137.527 Y75.15 E22.52021
G1 X137.527 Y87.315 E23.12713
G1 X150.103 Y87.315 E23.75455
G1 X150.899 Y87.478 E23.79508
G1 X151.603 Y87.849 E23.83479
G1 X151.728 Y87.952 E23.84287
G1 X152.168 Y88.498 E23.87785
G1 X152.516 Y89.198 E23.91685
G1 X152.621 Y89.915 E23.953
G1 X152.621 Y98.095 E24.36111
G1 X152.458 Y98.891 E24.40164
G1 X152.087 Y99.595 E24.44134
G1 X151.68 Y99.965 E24.46879
G1 X152.168 Y100.57 E24.50756
G1 X152.516 Y101.27 E24.54657
G1 X152.621 Y101.987 E24.58272
G1 X152.621 Y109.997 E24.98234
G1 X152.458 Y110.793 E25.02288
G1 X152.087 Y111.497 E25.06258
G1 X151.984 Y111.622 E25.07066
G1 X151.438 Y112.062 E25.10564
G1 X150.738 Y112.41 E25.14464
G1 X150.021 Y112.515 E25.1808
G1 X137.527 Y112.515 E25.80412
G1 X137.527 Y124.763 E26.41518
G1 X137.364 Y125.559 E26.45572
G1 X136.993 Y126.263 E26.49542
G1 X136.89 Y126.388 E26.5035
G1 X136.344 Y126.828 E26.53848
G1 X135.644 Y127.176 E26.57748
G1 X134.927 Y127.281 E26.61363
G1 X92.08 Y127.281 E28.75128
G1 X92.08 Y138.332 E29.30262
G1 X91.917 Y139.128 E29.34315
G1 X91.546 Y139.832 E29.38286
G1 X91.443 Y139.957 E29.39094
G1 X90.897 Y140.397 E29.42592
G1 X90.197 Y140.745 E29.46492
G1 X89.48 Y140.85 E29.50107
G1 X79.65 Y140.85 E29.99149
G1 X78.852 Y140.686 E30.03214
G1 X78.225 Y140.356 E30.06749
G1 X77.443 Y140.745 E30.11106
G1 X76.726 Y140.85 E30.14722
G1 X66.897 Y140.85 E30.63759
G1 X66.101 Y140.687 E30.67812
G1 X65.397 Y140.316 E30.71782
G1 X65.272 Y140.213 E30.7259
G1 X64.832 Y139.667 E30.76089
G1 X64.484 Y138.967 E30.79989
G1 X64.379 Y138.25 E30.83604
G1 X64.379 Y123.85 E31.55446
G1 X49.897 Y123.85 E32.27697
G1 X49.101 Y123.687 E32.31751
G1 X48.397 Y123.316 E32.35721
G1 X48.272 Y123.213 E32.36529
G1 X47.832 Y122.667 E32.40027
G1 X47.484 Y121.967 E32.43928
G1 X47.379 Y121.25 E32.47543
G1 X47.379 Y78.668 E34.59985
G1 X47.542 Y77.872 E34.64039
G1 X47.913 Y77.168 E34.68009
G1 X48.016 Y77.043 E34.68817
G1 X48.562 Y76.603 E34.72316
G1 X49.262 Y76.255 E34.76216
G1 X49.979 Y76.15 E34.79831
G1 X64.379 Y76.15 E35.51673
G1 X64.379 Y61.668 E36.23924
G1 X64.542 Y60.872 E36.27977
G1 X64.913 Y60.168 E36.31948
G1 X65.016 Y60.043 E36.32756
G0 F3600 X65.267 Y60.354
G1 F1800 X65.778 Y59.942 E36.3603
G1 X66.384 Y59.641 E36.39406
G1 X66.979 Y59.55 E36.42409
G1 X76.767 Y59.55 E36.91242
G1 X77.469 Y59.694 E36.94817
G1 X77.983 Y59.965 E36.97716
G1 X78.225 Y60.183 E36.99341
G1 X78.531 Y59.942 E37.01284
G1 X79.137 Y59.641 E37.0466
G1 X79.732 Y59.55 E37.07663
G1 X89.521 Y59.55 E37.565
G1 X90.223 Y59.694 E37.60076
G1 X90.876 Y60.038 E37.63758
G1 X91.288 Y60.549 E37.67033
G1 X91.589 Y61.155 E37.70408
G1 X91.68 Y61.75 E37.73411
G1 X91.681 Y72.95 E38.29288
G1 X134.968 Y72.95 E40.45248
G1 X135.67 Y73.094 E40.48823
G1 X136.323 Y73.438 E40.52506
G1 X136.735 Y73.949 E40.5578
G1 X137.036 Y74.555 E40.59156
G1 X137.127 Y75.15 E40.62159
G1 X137.127 Y87.715 E41.24846
G1 X150.062 Y87.715 E41.89379
G1 X150.764 Y87.859 E41.92954
G1 X151.417 Y88.203 E41.96637
G1 X151.829 Y88.714 E41.99911
G1 X152.13 Y89.32 E42.03287
G1 X152.221 Y89.915 E42.0629
G1 X152.221 Y98.054 E42.46896
G1 X152.077 Y98.756 E42.50471
G1 X151.733 Y99.409 E42.54153
G1 X151.222 Y99.821 E42.57428
G1 X150.879 Y99.991 E42.59338
G1 X151.417 Y100.276 E42.62375
G1 X151.829 Y100.786 E42.65646
G1 X152.13 Y101.392 E42.69022
G1 X152.221 Y101.987 E42.72025
G1 X152.221 Y109.956 E43.11783
G1 X152.077 Y110.658 E43.15358
G1 X151.733 Y111.311 E43.1904
G1 X151.222 Y111.723 E43.22315
G1 X150.616 Y112.024 E43.25691
G1 X150.021 Y112.115 E43.28694
G1 X137.127 Y112.115 E43.93022
G1 X137.127 Y124.722 E44.55919
G1 X136.983 Y125.424 E44.59494
G1 X136.639 Y126.077 E44.63176
G1 X136.128 Y126.489 E44.66451
G1 X135.522 Y126.79 E44.69827
G1 X134.927 Y126.881 E44.7283
G1 X91.68 Y126.881 E46.8859
G1 X91.68 Y138.291 E47.45514
G1 X91.536 Y138.993 E47.4909
G1 X91.192 Y139.646 E47.52772
G1 X90.681 Y140.058 E47.56047
G1 X90.075 Y140.359 E47.59422
G1 X89.48 Y140.45 E47.62425
G1 X79.691 Y140.45 E48.11263
G1 X78.989 Y140.306 E48.14838
G1 X78.475 Y140.035 E48.17737
G1 X78.233 Y139.817 E48.19362
G1 X77.927 Y140.058 E48.21305
G1 X77.321 Y140.359 E48.24681
G1 X76.726 Y140.45 E48.27684
G1 X66.938 Y140.45 E48.76517
G1 X66.236 Y140.306 E48.80092
G1 X65.583 Y139.962 E48.83774
G1 X65.171 Y139.451 E48.87049
G1 X64.87 Y138.845 E48.90425
G1 X64.779 Y138.25 E48.93428
G1 X64.779 Y123.45 E49.67265
G1 X49.938 Y123.45 E50.41307
G1 X49.236 Y123.306 E50.44882
G1 X48.583 Y122.962 E50.48565
G1 X48.171 Y122.451 E50.51839
G1 X47.87 Y121.845 E50.55215
G1 X47.779 Y121.25 E50.58218
G1 X47.779 Y78.709 E52.70456
G1 X47.923 Y78.007 E52.74031
G1 X48.267 Y77.354 E52.77714
G1 X48.778 Y76.942 E52.80988
G1 X49.384 Y76.641 E52.84364
G1 X49.979 Y76.55 E52.87367
G1 X64.779 Y76.55 E53.61205
G1 X64.779 Y61.709 E54.35247
G1 X64.923 Y61.007 E54.38822
G1 X65.267 Y60.354 E54.42504
G1 F1500 E47.92504
G0 F3600 X77.379 Y61.097
G0 X78.226 Y74.376
G1 F1500 E54.42504
G1 F1800 X77.992 Y74.65 E54.44302
G1 X77.972 Y74.75 E54.44811
G1 X78.046 Y74.931 E54.45786
G1 X78.134 Y74.99 E54.46315
G1 X78.327 Y74.988 E54.47278
G1 X78.469 Y74.846 E54.4828
G1 X78.469 Y74.656 E54.49227
G1 X78.226 Y74.376 E54.51077
G0 F3600 X78.452 Y74.04
G1 F1800 X78.23 Y73.718 E54.53028
G1 X78.053 Y73.992 E54.54656
G1 X77.793 Y74.228 E54.56408
G1 X77.614 Y74.495 E54.58011
G1 X77.564 Y74.75 E54.59308
G1 X77.614 Y75.005 E54.60604
G1 X77.757 Y75.219 E54.61888
G1 X77.979 Y75.368 E54.63222
G1 X78.227 Y75.416 E54.64482
G1 X78.482 Y75.366 E54.65779
G1 X78.7 Y75.221 E54.67085
G1 X78.845 Y75.003 E54.68391
G1 X78.895 Y74.75 E54.69678
G1 X78.845 Y74.497 E54.70964
G1 X78.681 Y74.254 E54.72427
G1 X78.452 Y74.04 E54.73991
G1 F1500 E48.23991
G0 F3600 X79.079 Y61.097
G0 X90.133 Y61.097
G0 X135.58 Y74.497
G0 X150.674 Y89.262
G0 X150.674 Y98.666
G0 X129.726 Y98.667
G0 X95.706 Y88.322
G1 F1500 E54.73991
G1 F1800 X95.067 Y89.116 E54.79076
G1 X94.594 Y89.77 E54.83102
G1 X94.057 Y90.591 E54.87997
G1 X93.694 Y91.212 E54.91585
G1 X93.218 Y92.123 E54.96713
G1 X92.918 Y92.776 E55.00299
G1 X92.548 Y93.687 E55.05204
G1 X92.26 Y94.5 E55.09507
G1 X92.043 Y95.226 E55.13287
G1 X91.848 Y96.01 E55.17318
G1 X91.668 Y96.906 E55.21878
G1 X91.558 Y97.631 E55.25536
G1 X91.456 Y98.604 E55.30417
G1 X91.414 Y99.315 E55.3397
G1 X91.401 Y100.081 E55.37792
G1 X91.422 Y100.833 E55.41546
G1 X91.489 Y101.759 E55.46178
G1 X91.575 Y102.479 E55.49795
G1 X91.726 Y103.394 E55.54422
G1 X91.883 Y104.137 E55.58211
G1 X92.097 Y104.953 E55.62419
G1 X92.386 Y105.871 E55.67221
G1 X92.644 Y106.574 E55.70957
G1 X93.044 Y107.514 E55.76053
G1 X93.357 Y108.161 E55.79639
G1 X93.858 Y109.075 E55.84839
G1 X94.267 Y109.746 E55.8876
G1 X94.724 Y110.421 E55.92827
G1 X95.339 Y111.229 E55.97893
G1 X95.92 Y111.924 E56.02412
G1 X96.448 Y112.497 E56.06299
G1 X97.144 Y113.178 E56.11157
G1 X97.824 Y113.783 E56.15698
G1 X98.451 Y114.289 E56.19718
G1 X99.23 Y114.85 E56.24507
G1 X99.941 Y115.314 E56.28743
G1 X100.658 Y115.732 E56.32884
G1 X101.524 Y116.184 E56.37757
G1 X102.234 Y116.511 E56.41657
G1 X103.1 Y116.86 E56.46315
G1 X103.798 Y117.106 E56.50007
G1 X104.562 Y117.336 E56.53988
G1 X105.454 Y117.561 E56.58578
G1 X106.326 Y117.736 E56.63015
G1 X107.023 Y117.842 E56.66532
G1 X107.969 Y117.942 E56.71278
G1 X108.518 Y117.977 E56.74023
G1 X109.4 Y118 E56.78424
G1 X110.286 Y117.976 E56.82846
G1 X111.175 Y117.911 E56.87293
G1 X111.867 Y117.83 E56.90769
G1 X112.763 Y117.682 E56.953
G1 X113.539 Y117.516 E56.99259
G1 X114.442 Y117.279 E57.03917
G1 X115.225 Y117.03 E57.08016
G1 X116.028 Y116.733 E57.12287
G1 X116.954 Y116.336 E57.17314
G1 X117.625 Y116.011 E57.21033
G1 X118.426 Y115.573 E57.25588
G1 X119.239 Y115.072 E57.30352
G1 X119.997 Y114.551 E57.34941
G1 X120.625 Y114.072 E57.38882
G1 X121.336 Y113.473 E57.4352
G1 X121.931 Y112.922 E57.47566
G1 X122.596 Y112.238 E57.52325
G1 X123.195 Y111.56 E57.56839
G1 X123.725 Y110.897 E57.61074
G1 X124.278 Y110.128 E57.65799
G1 X124.732 Y109.426 E57.6997
G1 X125.185 Y108.65 E57.74453
G1 X125.553 Y107.939 E57.78447
G1 X125.897 Y107.195 E57.82536
G1 X126.269 Y106.279 E57.87469
G1 X126.49 Y105.652 E57.90786
G1 X126.756 Y104.771 E57.95377
G1 X126.969 Y103.92 E57.99753
G1 X127.142 Y103.053 E58.04164
G1 X127.26 Y102.276 E58.08085
G1 X127.359 Y101.4 E58.12483
G1 X127.643 Y100.621 E58.1662
G1 X128.089 Y99.989 E58.20479
G1 X127.887 Y99.761 E58.21999
G1 X127.512 Y99.068 E58.2593
G1 X127.351 Y98.483 E58.28957
G1 X127.23 Y97.542 E58.3369
G1 X127.058 Y96.512 E58.389
G1 X126.912 Y95.838 E58.42341
G1 X126.667 Y94.913 E58.47115
G1 X126.456 Y94.252 E58.50576
G1 X126.125 Y93.348 E58.55379
G1 X125.809 Y92.597 E58.59444
G1 X125.431 Y91.81 E58.638
G1 X124.983 Y90.989 E58.68466
G1 X124.556 Y90.288 E58.72561
G1 X124.073 Y89.576 E58.76854
G1 X123.472 Y88.778 E58.81838
G1 X122.981 Y88.19 E58.85659
G1 X122.308 Y87.457 E58.90624
G1 X121.726 Y86.884 E58.94699
G1 X120.999 Y86.234 E58.99564
G1 X120.422 Y85.769 E59.03261
G1 X119.634 Y85.193 E59.08131
G1 X118.878 Y84.696 E59.12645
G1 X118.198 Y84.299 E59.16573
G1 X117.328 Y83.84 E59.2148
G1 X116.585 Y83.497 E59.25563
G1 X115.708 Y83.143 E59.30282
G1 X114.931 Y82.869 E59.34392
G1 X114.193 Y82.649 E59.38234
G1 X113.274 Y82.42 E59.42959
G1 X112.51 Y82.27 E59.46844
G1 X111.756 Y82.156 E59.50648
G1 X110.799 Y82.055 E59.55449
G1 X110.065 Y82.012 E59.59117
G1 X109.191 Y82.001 E59.63478
G1 X108.48 Y82.025 E59.67027
G1 X107.704 Y82.078 E59.70908
G1 X106.886 Y82.179 E59.7502
G1 X106.016 Y82.324 E59.7942
G1 X105.237 Y82.491 E59.83395
G1 X104.449 Y82.698 E59.87459
G1 X103.575 Y82.971 E59.92028
G1 X102.748 Y83.275 E59.96424
G1 X101.93 Y83.623 E60.00858
G1 X101.167 Y83.992 E60.05087
G1 X100.367 Y84.43 E60.09637
G1 X99.706 Y84.836 E60.13507
G1 X98.882 Y85.395 E60.18475
G1 X98.183 Y85.926 E60.22854
G1 X97.584 Y86.427 E60.2675
G1 X96.835 Y87.115 E60.31824
G1 X96.237 Y87.727 E60.36093
G1 X95.706 Y88.322 E60.40072
G0 F3600 X95.394 Y88.071
G1 F1800 X94.755 Y88.865 E60.45157
G1 X94.259 Y89.551 E60.4938
G1 X93.722 Y90.372 E60.54274
G1 X93.339 Y91.027 E60.5806
G1 X92.863 Y91.938 E60.63188
G1 X92.547 Y92.625 E60.6696
G1 X92.177 Y93.536 E60.71866
G1 X91.883 Y94.366 E60.76259
G1 X91.655 Y95.13 E60.80237
G1 X91.456 Y95.931 E60.84354
G1 X91.276 Y96.827 E60.88914
G1 X91.16 Y97.589 E60.92759
G1 X91.058 Y98.562 E60.9764
G1 X91.014 Y99.308 E61.01369
G1 X91.001 Y100.074 E61.05191
G1 X91.022 Y100.851 E61.09069
G1 X91.09 Y101.791 E61.1377
G1 X91.18 Y102.545 E61.17559
G1 X91.332 Y103.46 E61.22186
G1 X91.496 Y104.239 E61.26158
G1 X91.715 Y105.073 E61.3046
G1 X92.004 Y105.991 E61.35261
G1 X92.276 Y106.731 E61.39195
G1 X92.682 Y107.684 E61.44363
G1 X93.006 Y108.353 E61.48071
G1 X93.507 Y109.267 E61.53271
G1 X93.936 Y109.97 E61.5738
G1 X94.399 Y110.653 E61.61497
G1 X95.032 Y111.486 E61.66716
G1 X95.613 Y112.181 E61.71236
G1 X96.168 Y112.783 E61.75321
G1 X96.87 Y113.47 E61.80221
G1 X97.558 Y114.082 E61.84815
G1 X98.209 Y114.607 E61.88987
G1 X99.004 Y115.18 E61.93877
G1 X99.733 Y115.655 E61.98218
G1 X100.473 Y116.087 E62.02492
G1 X101.339 Y116.539 E62.07366
G1 X102.084 Y116.882 E62.11458
G1 X102.95 Y117.231 E62.16116
G1 X103.676 Y117.487 E62.19957
G1 X104.464 Y117.724 E62.24062
G1 X105.36 Y117.95 E62.28672
G1 X106.249 Y118.128 E62.33195
G1 X106.981 Y118.24 E62.3689
G1 X107.927 Y118.34 E62.41636
G1 X108.508 Y118.377 E62.4454
G1 X109.401 Y118.4 E62.48997
G1 X110.304 Y118.376 E62.53504
G1 X111.206 Y118.31 E62.58016
G1 X111.932 Y118.225 E62.61663
G1 X112.828 Y118.077 E62.66193
