;FLAVOR:Marlin
;TIME:3734
;Filament used: 3.98539m
;Layer height: 0.15
;MINX:75.15
;MINY:58.15
;MINZ:0.3
;MAXX:124.85
;MAXY:141.85
;MAXZ:10.05
;TARGET_MACHINE.NAME:Prusa i3
;Generated with Cura_SteamEngine 5.7.2
M140 S60
M105
M190 S60
M104 S200
M105
M109 S200
M82 ;absolute extrusion mode
G21 ;metric values
G90 ;absolute positioning
M82 ;set extruder to absolute mode
M107 ;start with the fan off
G28 X0 Y0 ;move X/Y to min endstops
G28 Z0 ;move Z to min endstops
G1 Z15.0 F9000 ;move the platform down 15mm
G92 E0 ;zero the extruded length
G1 F200 E3 ;extrude 3mm of feed stock
G92 E0 ;zero the extruded length again
G1 F9000
;Put printing message on LCD screen
M117 Printing...
G92 E0
G92 E0
G1 F1500 E-6.5
;LAYER_COUNT:66
;LAYER:0
M107
G0 F3600 X85.8 Y59.709 Z0.3
;TYPE:SKIRT
G1 F1500 E0
G1 F1800 X85.514 Y60.201 E0.02839
G1 X84.062 Y63.2 E0.19463
G1 X82.8 Y65.616 E0.33061
G1 X81.472 Y67.992 E0.46641
G1 X80.062 Y70.358 E0.60382
G1 X78.611 Y72.64 E0.73874
G1 X77.083 Y74.9 E0.87484
G1 X75.644 Y76.922 E0.99866
G1 X75.372 Y77.542 E1.03244
G1 X75.224 Y78.091 E1.06081
G1 X75.164 Y78.657 E1.0892
G1 X75.15 Y79.396 E1.12608
G1 X75.15 Y120.92 E3.19772
G1 X75.205 Y121.809 E3.24215
G1 X75.319 Y122.302 E3.2674
G1 X75.528 Y122.83 E3.29573
G1 X75.819 Y123.32 E3.32416
G1 X76.241 Y123.91 E3.36035
G1 X77.824 Y126.178 E3.49834
G1 X79.318 Y128.458 E3.63433
G1 X80.749 Y130.778 E3.77033
G1 X82.11 Y133.131 E3.90594
G1 X83.423 Y135.558 E4.04361
G1 X84.62 Y137.928 E4.17607
G1 X85.144 Y139.044 E4.23758
G1 X85.679 Y140.137 E4.29829
G1 X86.141 Y140.711 E4.33505
G1 X86.614 Y141.13 E4.36658
G1 X87.095 Y141.432 E4.39492
G1 X87.559 Y141.634 E4.42016
G1 X88.109 Y141.78 E4.44855
G1 X88.706 Y141.84 E4.47849
G1 X89.405 Y141.85 E4.51336
G1 X98.228 Y141.85 E4.95355
G1 X98.889 Y141.842 E4.98653
G1 X101.622 Y141.842 E5.12287
G1 X102.182 Y141.85 E5.15082
G1 X111.223 Y141.85 E5.60187
G1 X111.887 Y141.781 E5.63518
G1 X112.377 Y141.656 E5.66041
G1 X112.901 Y141.434 E5.6888
G1 X113.383 Y141.134 E5.71712
G1 X113.856 Y140.715 E5.74865
G1 X114.177 Y140.324 E5.77389
G1 X114.469 Y139.837 E5.80222
G1 X115.942 Y136.795 E5.97084
G1 X117.215 Y134.356 E6.1081
G1 X118.522 Y132.019 E6.24169
G1 X119.914 Y129.682 E6.3774
G1 X121.401 Y127.342 E6.51572
G1 X122.91 Y125.109 E6.65017
G1 X124.364 Y123.066 E6.77528
G1 X124.634 Y122.442 E6.8092
G1 X124.78 Y121.894 E6.83749
G1 X124.84 Y121.296 E6.86748
G1 X124.85 Y120.574 E6.9035
G1 X124.849 Y78.763 E8.98946
G1 X124.794 Y78.187 E9.01833
G1 X124.68 Y77.695 E9.04352
G1 X124.469 Y77.165 E9.07198
G1 X124.162 Y76.65 E9.1019
G1 X123.754 Y76.083 E9.13675
G1 X122.192 Y73.845 E9.27291
G1 X120.686 Y71.55 E9.40986
G1 X119.275 Y69.264 E9.54388
G1 X117.896 Y66.88 E9.68128
G1 X116.595 Y64.473 E9.81779
G1 X115.376 Y62.061 E9.95262
G1 X114.838 Y60.916 E10.01573
G1 X114.478 Y60.18 E10.05661
G1 X114.216 Y59.731 E10.08255
G1 X113.861 Y59.289 E10.11083
G1 X113.388 Y58.87 E10.14235
G1 X112.906 Y58.568 E10.17073
G1 X112.443 Y58.366 E10.19593
G1 X111.893 Y58.22 E10.22432
G1 X111.296 Y58.16 E10.25426
G1 X110.596 Y58.15 E10.28918
G1 X101.772 Y58.15 E10.72942
G1 X101.111 Y58.158 E10.7624
G1 X98.378 Y58.158 E10.89875
G1 X97.818 Y58.15 E10.92669
G1 X88.73 Y58.152 E11.38009
G1 X88.135 Y58.215 E11.40994
G1 X87.584 Y58.358 E11.43834
G1 X87.064 Y58.585 E11.46665
G1 X86.534 Y58.93 E11.4982
G1 X86.117 Y59.315 E11.52651
G1 X85.8 Y59.709 E11.55174
G0 F3600 X86.112 Y59.96
G1 F1800 X85.862 Y60.399 E11.57695
G1 X84.417 Y63.385 E11.74244
G1 X83.155 Y65.801 E11.87843
G1 X81.816 Y68.197 E12.01537
G1 X80.4 Y70.573 E12.15336
G1 X78.949 Y72.855 E12.28828
G1 X77.409 Y75.132 E12.42542
G1 X75.993 Y77.122 E12.54727
G1 X75.738 Y77.703 E12.57893
G1 X75.611 Y78.192 E12.60413
G1 X75.562 Y78.696 E12.62939
G1 X75.55 Y79.403 E12.66467
G1 X75.55 Y120.92 E14.73596
G1 X75.595 Y121.719 E14.77589
G1 X75.709 Y122.212 E14.80113
G1 X75.899 Y122.68 E14.82633
G1 X76.161 Y123.113 E14.85158
G1 X76.569 Y123.681 E14.88647
G1 X78.159 Y125.959 E15.02507
G1 X79.653 Y128.239 E15.16106
G1 X81.095 Y130.578 E15.29815
G1 X82.462 Y132.941 E15.43435
G1 X83.78 Y135.378 E15.57257
G1 X84.982 Y137.758 E15.70559
G1 X85.506 Y138.874 E15.7671
G1 X85.883 Y139.646 E15.80997
G1 X86.131 Y140.067 E15.83434
G1 X86.451 Y140.458 E15.85955
G1 X86.829 Y140.793 E15.88475
G1 X87.255 Y141.065 E15.90997
G1 X87.719 Y141.267 E15.93521
G1 X88.209 Y141.393 E15.96045
G1 X88.712 Y141.44 E15.98566
G1 X89.411 Y141.45 E16.02054
G1 X98.223 Y141.45 E16.46017
G1 X98.884 Y141.442 E16.49315
G1 X101.628 Y141.442 E16.63005
G1 X102.188 Y141.45 E16.65799
G1 X111.223 Y141.45 E17.10875
G1 X111.788 Y141.393 E17.13708
G1 X112.278 Y141.268 E17.16231
G1 X112.742 Y141.067 E17.18753
G1 X113.169 Y140.796 E17.21277
G1 X113.547 Y140.461 E17.23796
G1 X113.868 Y140.07 E17.2632
G1 X114.124 Y139.634 E17.28843
G1 X115.587 Y136.61 E17.45602
G1 X116.86 Y134.171 E17.59328
G1 X118.178 Y131.814 E17.72801
G1 X119.576 Y129.467 E17.8643
G1 X121.063 Y127.127 E18.00262
G1 X122.584 Y124.877 E18.13812
G1 X124.014 Y122.868 E18.26114
G1 X124.267 Y122.283 E18.29294
G1 X124.393 Y121.794 E18.31814
G1 X124.44 Y121.29 E18.34339
G1 X124.45 Y120.568 E18.37941
G1 X124.449 Y78.763 E20.46507
G1 X124.404 Y78.277 E20.48942
G1 X124.29 Y77.785 E20.51462
G1 X124.099 Y77.316 E20.53989
G1 X123.837 Y76.884 E20.56509
G1 X123.429 Y76.317 E20.59994
G1 X121.864 Y74.074 E20.73639
G1 X120.352 Y71.769 E20.87392
G1 X118.935 Y69.474 E21.00849
G1 X117.544 Y67.07 E21.14705
G1 X116.243 Y64.663 E21.28356
G1 X115.019 Y62.241 E21.41895
G1 X114.476 Y61.086 E21.48262
G1 X113.973 Y60.058 E21.53972
G1 X113.551 Y59.542 E21.57297
G1 X113.173 Y59.207 E21.59817
G1 X112.746 Y58.935 E21.62343
G1 X112.283 Y58.733 E21.64863
G1 X111.793 Y58.607 E21.67387
G1 X111.29 Y58.56 E21.69908
G1 X110.59 Y58.55 E21.734
G1 X101.777 Y58.55 E22.17369
G1 X101.116 Y58.558 E22.20667
G1 X98.372 Y58.558 E22.34356
G1 X97.812 Y58.55 E22.37151
G1 X88.772 Y58.55 E22.82251
G1 X88.177 Y58.613 E22.85236
G1 X87.688 Y58.744 E22.87762
G1 X87.227 Y58.95 E22.90281
G1 X86.803 Y59.226 E22.92805
G1 X86.429 Y59.566 E22.95327
G1 X86.112 Y59.96 E22.9785
G1 F1500 E16.4785
;MESH:Reprap_Syringe_Extruder_Top.stl
G0 F3600 X86.112 Y78.085
G0 X86.112 Y79.17
G0 X86.957 Y85
G0 X86.695 Y85.978
G0 X86.05 Y86.623
G0 X84.852 Y87.394
G0 X84.929 Y87.107
;TYPE:WALL-INNER
G1 F1500 E22.9785
G1 F1800 X83.937 Y86.839 E23.02976
G1 X83.157 Y86.059 E23.0848
G1 X82.905 Y85.104 E23.13407
G1 X82.905 Y84.896 E23.14445
G1 X83.157 Y83.937 E23.19392
G1 X83.937 Y83.157 E23.24895
G1 X84.896 Y82.905 E23.29842
G1 X85.104 Y82.905 E23.3088
G1 X86.059 Y83.157 E23.35807
G1 X86.746 Y83.846 E23.40662
G1 X86.86 Y84.013 E23.4167
G1 X87.098 Y84.909 E23.46296
G1 X87.103 Y85.086 E23.47179
G1 X86.862 Y85.973 E23.51765
G1 X86.774 Y86.124 E23.52637
G1 X86.14 Y86.755 E23.57099
G1 X85.979 Y86.86 E23.58058
G1 X85.144 Y87.087 E23.62375
G1 X84.929 Y87.107 E23.63452
G0 F3600 X84.852 Y87.394
G0 X88.136 Y102.359
G0 X88.825 Y104.629
G0 X89.942 Y106.721
G0 X91.447 Y108.553
G0 X93.279 Y110.058
G0 X95.371 Y111.175
G0 X97.414 Y111.795
G0 X99.968 Y112.153
G0 X99.997 Y111.856
G1 F1800 X97.681 Y111.628 E23.75063
G1 X95.474 Y110.956 E23.86573
G1 X93.417 Y109.862 E23.98196
G1 X91.615 Y108.381 E24.09833
G1 X90.138 Y106.583 E24.21442
G1 X89.045 Y104.533 E24.33032
G1 X88.372 Y102.3 E24.44668
G1 X88.144 Y100 E24.56199
G1 X88.372 Y97.681 E24.67824
G1 X89.046 Y95.462 E24.79394
G1 X90.137 Y93.418 E24.90953
G1 X91.615 Y91.615 E25.02585
G1 X93.418 Y90.137 E25.14216
G1 X95.466 Y89.045 E25.25795
G1 X97.681 Y88.375 E25.3734
G1 X100.003 Y88.144 E25.48982
G1 X102.315 Y88.372 E25.60573
G1 X104.522 Y89.044 E25.72083
G1 X106.587 Y90.14 E25.83746
G1 X108.381 Y91.615 E25.95333
G1 X109.863 Y93.418 E26.06977
G1 X110.954 Y95.462 E26.18536
G1 X111.628 Y97.681 E26.30106
G1 X111.856 Y100 E26.41732
G1 X111.628 Y102.3 E26.53263
G1 X110.955 Y104.533 E26.64898
G1 X109.861 Y106.585 E26.765
G1 X108.381 Y108.381 E26.8811
G1 X106.583 Y109.862 E26.99732
G1 X104.533 Y110.955 E27.11322
G1 X102.315 Y111.625 E27.22882
G1 X99.997 Y111.856 E27.34503
G0 F3600 X99.968 Y112.153
G0 X89.65 Y120.992
G0 X89.292 Y120.992
G1 F1800 X89.344 Y121.171 E27.35433
G1 X89.348 Y137.648 E28.17637
G1 X97.896 Y137.648 E28.60284
G1 X97.896 Y127.512 E29.10852
G1 X97.733 Y127.35 E29.11999
G1 X97.122 Y126.439 E29.17471
G1 X96.908 Y125.352 E29.22999
G1 X96.908 Y125.144 E29.24036
G1 X97.123 Y124.056 E29.29569
G1 X97.805 Y123.045 E29.35654
G1 X98.807 Y122.374 E29.4167
G1 X100.002 Y122.135 E29.4775
G1 X101.198 Y122.38 E29.53841
G1 X102.19 Y123.045 E29.59799
G1 X102.874 Y124.056 E29.65889
G1 X103.092 Y125.144 E29.71425
G1 X103.092 Y125.352 E29.72462
G1 X102.874 Y126.437 E29.77984
G1 X102.263 Y127.35 E29.83464
G1 X102.1 Y127.512 E29.84611
G1 X102.1 Y137.648 E30.3518
G1 X110.648 Y137.648 E30.77826
G1 X110.652 Y121.171 E31.6003
G1 X110.744 Y120.921 E31.61359
G1 X110.975 Y120.713 E31.6291
G1 X111.156 Y120.654 E31.6386
G1 X120.648 Y120.648 E32.11215
G1 X120.648 Y79.348 E34.17262
G1 X111.248 Y79.348 E34.64159
G1 X110.974 Y79.283 E34.65564
G1 X110.799 Y79.148 E34.66666
G1 X110.652 Y78.825 E34.68437
G1 X110.648 Y62.348 E35.50641
G1 X102.1 Y62.348 E35.93287
G1 X102.1 Y72.484 E36.43856
G1 X102.263 Y72.646 E36.45002
G1 X102.874 Y73.558 E36.50479
G1 X103.092 Y74.644 E36.56005
G1 X103.092 Y74.852 E36.57043
G1 X102.874 Y75.94 E36.62579
G1 X102.19 Y76.951 E36.68669
G1 X101.2 Y77.621 E36.74633
G1 X100.006 Y77.859 E36.80707
G1 X98.797 Y77.621 E36.86854
G1 X97.806 Y76.951 E36.92822
G1 X97.123 Y75.94 E36.98909
G1 X96.908 Y74.852 E37.04442
G1 X96.908 Y74.644 E37.0548
G1 X97.123 Y73.557 E37.11008
G1 X97.733 Y72.646 E37.16478
G1 X97.896 Y72.484 E37.17624
G1 X97.896 Y62.348 E37.68193
G1 X89.348 Y62.348 E38.10839
G1 X89.344 Y78.825 E38.93043
G1 X89.197 Y79.147 E38.94809
G1 X89.019 Y79.284 E38.9593
G1 X88.839 Y79.342 E38.96873
G1 X79.348 Y79.348 E39.44224
G1 X79.348 Y120.648 E41.50271
G1 X88.838 Y120.654 E41.97617
G1 X89.019 Y120.712 E41.98565
G1 X89.197 Y120.849 E41.99685
G1 X89.292 Y120.992 E42.00542
G0 F3600 X89.65 Y120.992
G0 X85.18 Y117.386
G0 X85.104 Y117.095
G1 F1800 X84.896 Y117.095 E42.0158
G1 X83.937 Y116.839 E42.06532
G1 X83.157 Y116.059 E42.12035
G1 X82.905 Y115.104 E42.16963
G1 X82.905 Y114.896 E42.18
G1 X83.157 Y113.937 E42.22947
G1 X83.936 Y113.158 E42.28443
G1 X84.93 Y112.893 E42.33576
G1 X85.156 Y112.916 E42.34709
G1 X85.976 Y113.136 E42.38945
G1 X86.122 Y113.22 E42.39785
G1 X86.756 Y113.856 E42.44265
G1 X86.86 Y114.017 E42.45222
G1 X87.101 Y114.909 E42.49831
G1 X87.089 Y115.136 E42.50965
G1 X86.864 Y115.955 E42.55203
G1 X86.746 Y116.15 E42.5634
G1 X86.061 Y116.837 E42.6118
G1 X85.104 Y117.095 E42.66125
G0 F3600 X85.18 Y117.386
G0 X115.18 Y117.386
G0 X115.104 Y117.095
G1 F1800 X114.896 Y117.095 E42.67163
G1 X113.937 Y116.839 E42.72115
G1 X113.21 Y116.11 E42.77251
G1 X113.131 Y115.953 E42.78128
G1 X112.902 Y115.092 E42.82573
G1 X112.898 Y114.911 E42.83476
G1 X113.119 Y114.082 E42.87757
G1 X113.216 Y113.878 E42.88883
G1 X113.875 Y113.22 E42.9353
G1 X114.025 Y113.134 E42.94392
G1 X114.856 Y112.913 E42.98682
G1 X115.073 Y112.894 E42.99769
G1 X116.06 Y113.158 E43.04866
G1 X116.839 Y113.937 E43.10362
G1 X117.096 Y114.896 E43.15316
G1 X117.096 Y115.104 E43.16353
G1 X116.839 Y116.059 E43.21287
G1 X116.061 Y116.837 E43.26777
G1 X115.104 Y117.095 E43.31722
G0 F3600 X115.18 Y117.386
G0 X116.185 Y117.053
G0 X117.053 Y116.185
G0 X117.371 Y115
G0 X115.147 Y87.395
G0 X115.071 Y87.107
G1 F1800 X114.842 Y87.084 E43.3287
G1 X114.022 Y86.861 E43.37109
G1 X113.872 Y86.774 E43.37975
G1 X113.222 Y86.124 E43.42561
G1 X113.134 Y85.972 E43.43437
G1 X112.913 Y85.144 E43.47712
G1 X112.891 Y84.936 E43.48756
G1 X113.131 Y84.044 E43.53364
G1 X113.213 Y83.881 E43.54275
G1 X113.937 Y83.157 E43.59383
G1 X114.896 Y82.905 E43.6433
G1 X115.104 Y82.905 E43.65368
G1 X116.059 Y83.157 E43.70295
G1 X116.839 Y83.937 E43.75798
G1 X117.096 Y84.896 E43.80752
G1 X117.096 Y85.104 E43.81789
G1 X116.839 Y86.059 E43.86724
G1 X116.062 Y86.836 E43.92206
G1 X115.071 Y87.107 E43.97331
G0 F3600 X115.005 Y86.71
;TYPE:WALL-OUTER
G1 F1800 X114.146 Y86.478 E44.0177
G1 X113.514 Y85.846 E44.0623
G1 X113.288 Y85 E44.10598
G1 X113.517 Y84.142 E44.15029
G1 X114.157 Y83.512 E44.19509
G1 X115.003 Y83.289 E44.23874
G1 X115.839 Y83.513 E44.28192
G1 X116.48 Y84.144 E44.32679
G1 X116.711 Y85 E44.37103
G1 X116.484 Y85.839 E44.41439
G1 X115.862 Y86.471 E44.45863
G1 X115.005 Y86.71 E44.50302
G0 F3600 X114.812 Y86.658
G0 X114.631 Y87.335
G0 X111.864 Y102.359
G0 X111.175 Y104.629
G0 X110.058 Y106.721
G0 X108.553 Y108.553
G0 X106.721 Y110.058
G0 X104.629 Y111.175
G0 X102.586 Y111.795
G0 X99.912 Y112.148
G0 X99.98 Y111.452
G1 F1800 X97.76 Y111.233 E44.61431
G1 X95.619 Y110.583 E44.72594
G1 X93.653 Y109.535 E44.83709
G1 X91.898 Y108.098 E44.95025
G1 X90.463 Y106.343 E45.06335
G1 X89.412 Y104.363 E45.17519
G1 X88.766 Y102.231 E45.28633
G1 X88.548 Y99.98 E45.39916
G1 X88.764 Y97.78 E45.50945
G1 X89.427 Y95.597 E45.62327
G1 X90.465 Y93.653 E45.73322
G1 X91.898 Y91.898 E45.84625
G1 X93.657 Y90.463 E45.95951
G1 X95.605 Y89.423 E46.06968
G1 X97.76 Y88.767 E46.18206
G1 X100.02 Y88.548 E46.29534
G1 X102.236 Y88.767 E46.40644
G1 X104.377 Y89.417 E46.51807
G1 X106.346 Y90.465 E46.62935
G1 X108.098 Y91.898 E46.74227
G1 X109.537 Y93.657 E46.85565
G1 X110.588 Y95.633 E46.96731
G1 X111.236 Y97.78 E47.0792
G1 X111.452 Y100.02 E47.19147
G1 X111.234 Y102.231 E47.30231
G1 X110.573 Y104.399 E47.41539
G1 X109.515 Y106.376 E47.52726
G1 X108.098 Y108.098 E47.63852
G1 X106.343 Y109.537 E47.75174
G1 X104.392 Y110.577 E47.86205
G1 X102.236 Y111.233 E47.97448
G1 X99.98 Y111.452 E48.08756
G0 F3600 X99.781 Y111.433
G0 X99.713 Y112.128
G0 X110.351 Y121.222
G0 X111.049 Y121.222
G1 F1800 X111.12 Y121.093 E48.0949
G1 X111.205 Y121.048 E48.0997
G1 X121.048 Y121.048 E48.59077
G1 X121.048 Y78.948 E50.69115
G1 X111.217 Y78.946 E51.18162
G1 X111.098 Y78.882 E51.18836
G1 X111.049 Y78.774 E51.19428
G1 X111.048 Y61.948 E52.03373
G1 X101.7 Y61.948 E52.5001
G1 X101.7 Y72.697 E53.03637
G1 X101.931 Y72.868 E53.05071
G1 X102.493 Y73.715 E53.10143
G1 X102.705 Y74.748 E53.15404
G1 X102.497 Y75.783 E53.20671
G1 X101.903 Y76.661 E53.25959
G1 X101.033 Y77.25 E53.31201
G1 X99.999 Y77.452 E53.36457
G1 X98.963 Y77.25 E53.41723
G1 X98.093 Y76.661 E53.46965
G1 X97.503 Y75.782 E53.52246
G1 X97.295 Y74.749 E53.57503
G1 X97.499 Y73.713 E53.62771
G1 X98.065 Y72.868 E53.67845
G1 X98.296 Y72.697 E53.69279
G1 X98.296 Y61.948 E54.22906
G1 X88.948 Y61.948 E54.69543
G1 X88.947 Y78.774 E55.53489
G1 X88.864 Y78.912 E55.54292
G1 X88.788 Y78.948 E55.54712
G1 X78.948 Y78.948 E56.03804
G1 X78.948 Y121.048 E58.13841
G1 X88.778 Y121.05 E58.62883
G1 X88.898 Y121.115 E58.63564
G1 X88.947 Y121.222 E58.64151
G1 X88.948 Y138.048 E59.48097
G1 X98.296 Y138.048 E59.94734
G1 X98.296 Y127.299 E60.48361
G1 X98.065 Y127.128 E60.49795
G1 X97.503 Y126.281 E60.54866
G1 X97.295 Y125.249 E60.60118
G1 X97.499 Y124.213 E60.65386
G1 X98.091 Y123.333 E60.70678
G1 X98.964 Y122.75 E60.75915
G1 X100.004 Y122.544 E60.81204
G1 X101.035 Y122.751 E60.86451
G1 X101.905 Y123.333 E60.91673
G1 X102.493 Y124.214 E60.96957
G1 X102.705 Y125.248 E61.02223
G1 X102.497 Y126.283 E61.0749
G1 X101.931 Y127.128 E61.12564
G1 X101.7 Y127.299 E61.13998
G1 X101.7 Y138.048 E61.67625
G1 X111.048 Y138.048 E62.14262
G1 X111.049 Y121.222 E62.98207
G0 F3600 X111.12 Y121.093
G0 X111.166 Y121.069
G0 X111.166 Y120.35
G0 X114.817 Y117.384
G0 X114.997 Y116.711
G1 F1800 X114.144 Y116.48 E63.02616
G1 X113.514 Y115.844 E63.07083
G1 X113.288 Y114.999 E63.11447
G1 X113.514 Y114.15 E63.1583
G1 X114.15 Y113.514 E63.20317
G1 X115.007 Y113.29 E63.24736
